svg/color/lix.svg

<?xml version="1.0" encoding="UTF-8" ?>
<!DOCTYPE svg PUBLIC "-//W3C//DTD SVG 1.1//EN" "http://www.w3.org/Graphics/SVG/1.1/DTD/svg11.dtd">
<svg width="250pt" height="250pt" viewBox="0 0 250 250" version="1.1" xmlns="http://www.w3.org/2000/svg">
<g id="#ffffffff">
<path fill="#ffffff" opacity="1.00" d=" M 0.00 0.00 L 120.49 0.00 C 93.03 0.98 66.00 11.22 44.98 28.94 C 20.36 49.21 4.09 79.36 0.77 111.09 C 0.53 113.25 0.29 115.42 0.00 117.59 L 0.00 0.00 Z" />
<path fill="#ffffff" opacity="1.00" d=" M 132.42 0.00 L 250.00 0.00 L 250.00 117.59 C 249.01 107.71 247.62 97.83 244.57 88.35 C 235.30 57.63 213.58 30.96 185.47 15.52 C 169.24 6.38 150.93 1.47 132.42 0.00 Z" />
<path fill="#ffffff" opacity="1.00" d=" M 0.00 131.43 C 0.76 139.19 1.49 147.00 3.51 154.56 C 10.35 183.45 28.08 209.54 52.28 226.71 C 71.26 240.52 94.24 248.26 117.58 250.00 L 0.00 250.00 L 0.00 131.43 Z" />
<path fill="#ffffff" opacity="1.00" d=" M 233.05 187.92 C 243.20 170.83 248.73 151.25 250.00 131.47 L 250.00 250.00 L 131.45 250.00 C 139.72 249.25 148.02 248.32 156.06 246.14 C 188.15 238.11 216.55 216.57 233.05 187.92 Z" />
</g>
<g id="#000000ff">
<path fill="#000000" opacity="1.00" d=" M 120.49 0.00 L 132.42 0.00 C 150.93 1.47 169.24 6.38 185.47 15.52 C 213.58 30.96 235.30 57.63 244.57 88.35 C 247.62 97.83 249.01 107.71 250.00 117.59 L 250.00 131.47 C 248.73 151.25 243.20 170.83 233.05 187.92 C 216.55 216.57 188.15 238.11 156.06 246.14 C 148.02 248.32 139.72 249.25 131.45 250.00 L 117.58 250.00 C 94.24 248.26 71.26 240.52 52.28 226.71 C 28.08 209.54 10.35 183.45 3.51 154.56 C 1.49 147.00 0.76 139.19 0.00 131.43 L 0.00 117.59 C 0.29 115.42 0.53 113.25 0.77 111.09 C 4.09 79.36 20.36 49.21 44.98 28.94 C 66.00 11.22 93.03 0.98 120.49 0.00 M 68.42 51.50 C 68.02 79.67 68.36 107.84 68.24 136.02 C 67.98 144.59 71.89 153.05 78.33 158.67 C 83.11 163.75 89.64 166.86 96.42 168.22 C 98.51 168.66 100.77 168.40 102.75 169.28 C 105.03 174.73 106.64 180.75 110.92 185.06 C 118.47 192.88 128.92 198.60 140.02 198.36 C 153.99 198.23 167.99 198.74 181.95 198.12 C 182.48 189.79 181.84 180.90 177.49 173.56 C 174.22 167.62 168.86 162.83 162.46 160.53 C 155.03 157.56 146.90 157.25 139.00 157.39 C 130.91 157.32 122.81 157.61 114.72 157.25 C 114.20 137.54 114.88 117.81 114.40 98.10 C 113.24 86.86 109.12 75.80 102.16 66.85 C 96.78 59.32 88.48 54.30 79.68 51.78 C 75.95 51.32 72.17 51.65 68.42 51.50 Z" />
<path fill="#000000" opacity="1.00" d=" M 79.27 63.97 C 86.80 65.40 92.10 71.83 96.09 77.92 C 102.59 87.60 103.46 99.68 103.31 110.99 C 103.09 126.39 103.67 141.81 103.08 157.20 C 94.11 157.59 86.19 151.81 81.38 144.65 C 79.11 141.21 79.18 136.95 79.18 133.00 C 79.24 109.99 79.11 86.98 79.27 63.97 Z" />
<path fill="#000000" opacity="1.00" d=" M 115.00 169.15 C 122.63 168.24 130.34 168.94 138.00 168.68 C 145.85 168.86 154.39 168.41 161.31 172.75 C 166.18 175.73 168.71 181.22 169.88 186.61 C 163.92 186.73 157.96 186.65 152.00 186.68 C 144.25 186.57 136.10 187.57 128.86 184.11 C 122.65 181.20 116.28 176.27 115.00 169.15 Z" />
</g>
<g id="#5067d9ff">
<path fill="#5067d9" opacity="1.00" d=" M 68.42 51.50 C 72.17 51.65 75.95 51.32 79.68 51.78 C 88.48 54.30 96.78 59.32 102.16 66.85 C 109.12 75.80 113.24 86.86 114.40 98.10 C 114.88 117.81 114.20 137.54 114.72 157.25 C 122.81 157.61 130.91 157.32 139.00 157.39 C 146.90 157.25 155.03 157.56 162.46 160.53 C 168.86 162.83 174.22 167.62 177.49 173.56 C 181.84 180.90 182.48 189.79 181.95 198.12 C 167.99 198.74 153.99 198.23 140.02 198.36 C 128.92 198.60 118.47 192.88 110.92 185.06 C 106.64 180.75 105.03 174.73 102.75 169.28 C 100.77 168.40 98.51 168.66 96.42 168.22 C 89.64 166.86 83.11 163.75 78.33 158.67 C 71.89 153.05 67.98 144.59 68.24 136.02 C 68.36 107.84 68.02 79.67 68.42 51.50 M 79.27 63.97 C 79.11 86.98 79.24 109.99 79.18 133.00 C 79.18 136.95 79.11 141.21 81.38 144.65 C 86.19 151.81 94.11 157.59 103.08 157.20 C 103.67 141.81 103.09 126.39 103.31 110.99 C 103.46 99.68 102.59 87.60 96.09 77.92 C 92.10 71.83 86.80 65.40 79.27 63.97 M 115.00 169.15 C 116.28 176.27 122.65 181.20 128.86 184.11 C 136.10 187.57 144.25 186.57 152.00 186.68 C 157.96 186.65 163.92 186.73 169.88 186.61 C 168.71 181.22 166.18 175.73 161.31 172.75 C 154.39 168.41 145.85 168.86 138.00 168.68 C 130.34 168.94 122.63 168.24 115.00 169.15 Z" />
</g>
</svg>

<?xml version="1.0" encoding="utf-8"?>
<!-- Generator: Adobe Illustrator 26.0.3, SVG Export Plug-In . SVG Version: 6.00 Build 0)  -->
<svg version="1.1" id="Layer_1" xmlns="http://www.w3.org/2000/svg" xmlns:xlink="http://www.w3.org/1999/xlink" x="0px" y="0px"
	 viewBox="0 0 250 250" style="enable-background:new 0 0 250 250;" xml:space="preserve">
<style type="text/css">
	.st0{fill:#5067D9;}
</style>
<g id="_x23_000000ff">
	<path d="M120.5,0h11.9c18.5,1.5,36.8,6.4,53.1,15.5c28.1,15.4,49.8,42.1,59.1,72.8c3,9.5,4.4,19.4,5.4,29.2v13.9
		c-1.3,19.8-6.8,39.4-16.9,56.4c-16.5,28.7-44.9,50.2-77,58.2c-8,2.2-16.3,3.1-24.6,3.9h-13.9c-23.3-1.7-46.3-9.5-65.3-23.3
		c-24.2-17.2-41.9-43.3-48.8-72.2c-2-7.6-2.8-15.4-3.5-23.1v-13.8c0.3-2.2,0.5-4.3,0.8-6.5C4.1,79.4,20.4,49.2,45,28.9
		C66,11.2,93,1,120.5,0 M68.4,51.5c-0.4,28.2-0.1,56.3-0.2,84.5c-0.3,8.6,3.7,17,10.1,22.6c4.8,5.1,11.3,8.2,18.1,9.6
		c2.1,0.4,4.3,0.2,6.3,1.1c2.3,5.4,3.9,11.5,8.2,15.8c7.6,7.8,18,13.5,29.1,13.3c14-0.1,28,0.4,41.9-0.2c0.5-8.3-0.1-17.2-4.5-24.6
		c-3.3-5.9-8.6-10.7-15-13c-7.4-3-15.6-3.3-23.5-3.1c-8.1-0.1-16.2,0.2-24.3-0.1c-0.5-19.7,0.2-39.4-0.3-59.2
		c-1.2-11.2-5.3-22.3-12.2-31.2c-5.4-7.5-13.7-12.5-22.5-15.1C75.9,51.3,72.2,51.7,68.4,51.5z"/>
	<path d="M79.3,64c7.5,1.4,12.8,7.9,16.8,13.9c6.5,9.7,7.4,21.8,7.2,33.1c-0.2,15.4,0.4,30.8-0.2,46.2c-9,0.4-16.9-5.4-21.7-12.6
		c-2.3-3.4-2.2-7.7-2.2-11.6C79.2,110,79.1,87,79.3,64z"/>
	<path d="M115,169.1c7.6-0.9,15.3-0.2,23-0.5c7.9,0.2,16.4-0.3,23.3,4.1c4.9,3,7.4,8.5,8.6,13.9c-6,0.1-11.9,0-17.9,0.1
		c-7.8-0.1-15.9,0.9-23.1-2.6C122.7,181.2,116.3,176.3,115,169.1z"/>
</g>
<g id="_x23_5067d9ff">
	<path class="st0" d="M68.4,51.5c3.8,0.2,7.5-0.2,11.3,0.3c8.8,2.5,17.1,7.5,22.5,15.1c7,9,11.1,20,12.2,31.2
		c0.5,19.7-0.2,39.4,0.3,59.2c8.1,0.4,16.2,0.1,24.3,0.1c7.9-0.1,16,0.2,23.5,3.1c6.4,2.3,11.8,7.1,15,13c4.3,7.3,5,16.2,4.5,24.6
		c-14,0.6-28,0.1-41.9,0.2c-11.1,0.2-21.6-5.5-29.1-13.3c-4.3-4.3-5.9-10.3-8.2-15.8c-2-0.9-4.2-0.6-6.3-1.1
		c-6.8-1.4-13.3-4.5-18.1-9.6c-6.4-5.6-10.3-14.1-10.1-22.6C68.4,107.8,68,79.7,68.4,51.5 M79.3,64c-0.2,23,0,46-0.1,69
		c0,3.9-0.1,8.2,2.2,11.6c4.8,7.2,12.7,12.9,21.7,12.6c0.6-15.4,0-30.8,0.2-46.2c0.2-11.3-0.7-23.4-7.2-33.1
		C92.1,71.8,86.8,65.4,79.3,64 M115,169.1c1.3,7.1,7.7,12.1,13.9,15c7.2,3.5,15.4,2.5,23.1,2.6c6,0,11.9,0.1,17.9-0.1
		c-1.2-5.4-3.7-10.9-8.6-13.9c-6.9-4.3-15.5-3.9-23.3-4.1C130.3,168.9,122.6,168.2,115,169.1z"/>
</g>
</svg>
